X:1
T:Ole Miss
T:W. C. Handy
T:Rag
T:Copyright 1916 by Pace &amp; Handy Music Co.
T:Copyright 1916 by Pace &amp; Handy Music Co.
T:Copyright 1916 by Pace &amp; Handy Music Co.
Z:Copyright 1916 by Pace & Handy Music Co.
%%score { ( 1 3 ) | ( 2 4 ) }
L:1/8
Q:1/4=130
M:4/4
K:F
V:1 treble nm="Piano" snm="Pno."
V:3 treble 
V:2 bass 
V:4 bass 
V:1
"^Not too fast"!ff! [Af]Ac[Acg]- [Acg]c[ca]c | z cac [c^g] [ca]3 | [Ag]Ac[Af]- [Af]3 z | %3
 z B[Bg][Bd] [Bf] [Bg]3 | [F=Bf]3 [GBg]- [GBg]4 | [Aca][FAf][GBg][Aca] [FAf] [FAf]3 | %6
 [=Bfa]f[Bg]a [Gdf]g[Ba]f | [cea] [Beg]3 [FAf]4 |:!mf! C^CD^D E [Ec]3 | [EGBc]8 | F^FG^G A [Af]3 | %11
 [FAcf]8 | ([Bd] E2) ([Bd] E2) [Bd]E- | E[Bd] E2 [Bd] [B,E]3 | ([Ad] F2) ([Ad] F2) [Ad]F- | %15
 F[Bd] F2 ([Ad] [FA]3) | C^CD^D E [Ec]3 | !^![EGBc]8 | F^FG^G A [Af]3 | [FAcf]8 | %20
 .c.d.a.c .d .[c^fa]3 | z .=B.d.f .B .[Bfa]3 | z .B.c.e .[Bea] .[Bea]3 |1 [FAf]edc dcAF :|2 %24
 [Af] z{/f} [Ac_e]2{/f} [Gce]2{/f} [Fce]2 |: %25
[Q:1/4=120]"^A la Blues"!p!{/f} D2[I:staff +1] ^C,D, [D,F,B,]2[I:staff -1] (^CD | %26
 [DFB]2) (^cd [df_a]) [dfg]3 | [FAcf]2 (^G,A, [A,CF]3) z | z (=B,DF) (_A [B,FG]3) | %29
 [_B,EG]4 [A,DF] [G,^CE]3 | [A,DF]4 [DF^G] [DFA]3 | c.[EA].[EA].[EA] =B.[D^G].[DG].[DG] | %32
 [CEA] z{/f} [Ac_e]2{/f} [Gce]2{/f} [Fce]2 | D2[I:staff +1] ^C,D, [D,F,B,]2[I:staff -1] (^CD | %34
 [DFB]2) ^cd ([df_a] [dfg]3) | [FAcf]2 (^G,A, [A,CF]4) | z [FG][FA][FAc] [FAc_e] [FAcd]3 | %37
 [EBd]2[I:staff +1] ([^D,^F,][E,G,] [E,G,B,]2)[I:staff -1] ([^D^F][EG] | [EB_d]2) z2 [EBc] [EBc]3 | %39
 [A,CF]4 [B,G] [B,F]3 |1 [A,CF]2{/f} [Ac_e]2{/f} [Gce]2{/f} [Fce]2 :|2 [A,CF]2 z2 FcAF || %42
!mf! C^CD^D E [Ec]3 | !^![EGBc]8 | F^FG^G A [Af]3 | [FAcf]8 | ([Bd] E2) ([Bd] E2) [Bd]E- | %47
 E[Bd] E2 ([Bd] [B,E]3) | ([Ad] F2) ([Ad] F2) [Ad]F- | F[Bd] F2 ([Ad] [FA]3) | C^CD^D E [Ec]3 | %51
 !^![EGBc]8 | F^FG^G A [Af]3 | [FAcf]8 | .c.d.a.c .d .[c^fa]3 | z .=B.d.f .B .[Bfa]3 | %56
 z ._B.c.e .[Bea] .[Bea]3 | [Af] z z2 !^![_EF]2 z2 |: %58
[K:Bb]"^Trio""^2d time 8va"!p!!p! [FBd]4 [FB^c] [FBd]3 | [FAf]4 [F_A=e] [FAf]3 | %60
 [GB_e]4 [GB] [_GBc]3 | [FBd]8 | [EGc]4 [EG] [EGc]3 | [DFB]4 [DFBc] [DFBd]3 | %64
 [=EBd]4 [EB^c] [EBd]3 | [FAc]8 | [DFBd]4 [^CFB^c] [DFBd]3 | [F=Bf]4 [=EB=e] [FBf]3 | %68
 [EGB_e]2 [GB]2 [GBc]2 [GB^c]2 | [^FAd]8 | [GBc]4 G [GBc]3 | [DB]4 [=EGBc] [EB^c]3 | %72
 [FBd]2 [DB]2 [=EGB] [_EAc]3 |1!<(! [DB]F=EF GABc!<)! :|2!p! [DB]2 z2 [B,DFB]2 z2 |] %75
V:2
 [F,,C,F,]2 [F,,C,F,]2 [F,,C,F,]2 [F,,C,F,]2 | [E,,C,E,]8 | %2
 [_E,,C,_E,]2 [E,,C,E,]2 [E,,C,E,]2 [E,,C,E,]2 | [D,,D,]8 | [_D,,_D,]2 [D,,D,]2 [D,,D,]2 [D,,D,]2 | %5
 [C,,C,]4 [F,,F,]4 | [G,,G,]2 [D,D]2 [=B,,=B,]2 [G,,G,]2 | [C,,C,]2 [G,B,CE]2 [F,,C,F,]4 |: %8
 [E,,E,]2 [G,B,C]2 [G,,G,]2 [G,B,C]2 | [C,,C,][^C,,^C,][D,,D,][^D,,^D,] [E,,E,] [=C,C]3 | %10
 A,,2 [F,A,C]2 C,2 [F,A,C]2 | [F,,F,][^F,,^F,][G,,G,][^G,,^G,] [A,,A,] [=F,F]3 | %12
 [G,,G,]2 [C,C]2 [E,,E,]2 [G,,G,]2 | [C,,C,]2 [E,,E,]2 [G,,,G,,]2 [C,,C,]2 | %14
 [F,,F,]2 [A,,A,]2 [C,,C,]2 [F,,F,]2 |!8vb(! A,,,2!8vb)!!8vb(! C,,2!8vb)! [F,,F,]4 | %16
 [E,,E,]2 [G,B,C]2 [G,,G,]2 [G,B,C]2 | [C,,C,][^C,,^C,][D,,D,][^D,,^D,] [E,,E,] [=C,C]3 | %18
 A,,2 [F,A,C]2 C,2 [F,A,C]2 | [F,,F,][^F,,^F,][G,,G,][^G,,^G,] [A,,A,] [=F,F]3 | %20
 !^![D,,D,]2 !^![^F,,^F,]2 !^![A,,A,]2 !^![D,F,A,CD]2 | [G,,G,]2 [G,=B,D]2 [D,,D,]2 [G,B,D]2 | %22
 [C,,C,]2 [B,CE]2 [C,,C,]2 [B,CE]2 |1 [F,,C,F,]2 z2 z4 :|2 [F,,C,F,] z z2 z4 |: %25
 [B,,,F,,B,,]2 z2 [B,,,F,,B,,]2 z2 | [B,,,F,,B,,]2 z2 [B,,,F,,B,,]2 [B,,,F,,B,,]2 | %27
 [F,,C,F,]6 [_E,,_E,]2 | [D,,D,]8 | [C,,C,]2 [B,,,B,,]2 [A,,,A,,]4 | [D,,D,]2 [E,,E,]2 [F,,F,]4 | %31
 [E,,E,]4 [E,,E,]4 | [A,,E,A,] z z2 z4 | [B,,,F,,B,,]2 z2 [B,,,F,,B,,]2 z2 | %34
 [B,,,F,,B,,]2 z2 [B,,,F,,B,,]2 [B,,,F,,B,,]2 | [F,,C,F,]6 [F,,_D,F,]2 | [F,,C,F,]8 | [C,,C,]8- | %38
 [C,,C,]2 z2 [C,,C,]4 | [F,,C,F,]4 [F,,_D,F,]4 |1 [F,,C,F,]2 z2 z4 :|2 [F,,C,F,]2 z2 z4 || %42
 [E,,E,]2 [G,B,C]2 [G,,G,]2 [G,B,C]2 | [C,,C,][^C,,^C,][D,,D,][^D,,^D,] [E,,E,] [=C,C]3 | %44
 A,,2 [F,A,C]2 C,2 [F,A,C]2 | [F,,F,][^F,,^F,][G,,G,][^G,,^G,] [A,,A,] [=F,F]3 | %46
 [G,,G,]2 [C,C]2 [E,,E,]2 [G,,G,]2 | [C,,C,]2 [E,,E,]2 [G,,,G,,]2 [C,,C,]2 | %48
 [F,,F,]2 [A,,A,]2 [C,,C,]2 [F,,F,]2 |!8vb(! A,,,2!8vb)!!8vb(! C,,2!8vb)! [F,,F,]4 | %50
 [E,,E,]2 [G,B,C]2 [G,,G,]2 [G,B,C]2 | [C,,C,][^C,,^C,][D,,D,][^D,,^D,] [E,,E,] [=C,C]3 | %52
 A,,2 [F,A,C]2 C,2 [F,A,C]2 | F,,^F,,G,,^G,, A,, F,3 | %54
 !^![D,,D,]2 !^![^F,,^F,]2 !^![A,,A,]2 !^![D,=F,A,CD]2 | [G,,G,]2 [G,=B,D]2 [D,,D,]2 [G,B,D]2 | %56
 [C,,C,]2 [B,CE]2 [C,,C,]2 [B,CE]2 | [F,,C,F,] z z2 !^![F,A,C]2 z2 |: %58
[K:Bb] [B,,,B,,]2 [F,B,D]2 [F,,F,]2 [F,B,D]2 | [F,,F,]2 [F,A,C]2 [B,,,B,,]2 [F,_A,B,D]2 | %60
 [E,,E,]2 [E,G,B,]2 [E,G,B,]2 [E,,E,]2 | [B,,,B,,][=B,,,=B,,][C,,C,][^C,,^C,] [D,,D,] [_B,,B,]3 | %62
 [E,,E,]2 [E,G,B,]2 [E,,E,]2 [E,G,B,]2 | [B,,,B,,]2 [F,B,]2 [F,,F,]2 [F,B,]2 | %64
 [G,,G,]2 [G,B,C]2 [C,,C,]2 [G,B,C]2 | [F,,F,][^F,,^F,][G,,G,][^G,,^G,] [A,,A,] [=F,F]3 | %66
 [B,,,B,,]2 [B,,B,]2 [A,,A,]2 [_A,,_A,]2 | [G,,G,]2 [G,=B,D]2 [G,,,G,,]2 [G,B,D]2 | %68
 [C,,C,]2 [D,,D,]2 [E,,E,]2 [E,,E,]2 | D,^D,=E,F, ^F, D3 | [E,,E,]2 [E,G,B,]2 [E,,E,]2 [=E,,=E,]2 | %71
 [F,,F,]2 [F,B,]2 [G,,G,]2 [_G,,_G,]2 | [F,,F,]2 [G,,G,]2 [C,,C,]2 [F,,F,]2 |1 [B,,,B,,]2 z2 z4 :|2 %74
 [B,,F,B,]2 z2 [B,,,B,,]2 z2 |] %75
V:3
 x8 | x8 | x8 | x8 | x8 | x8 | x8 | x8 |: x8 | x8 | x8 | x8 | x8 | x8 | x8 | x8 | x8 | x8 | x8 | %19
 x8 | x8 | x8 | x8 |1 x8 :|2 x8 |: x8 | x8 | x8 | x8 | x8 | x8 | c4 =B4 | x8 | x8 | x8 | x8 | x8 | %37
 x8 | x8 | x8 |1 x8 :|2 x8 || x8 | x8 | x8 | x8 | x8 | x8 | x8 | x8 | x8 | x8 | x8 | x8 | x8 | x8 | %56
 x8 | x8 |:[K:Bb] x8 | x8 | x8 | x8 | x8 | x8 | x8 | x8 | x8 | x8 | x8 | x8 | x8 | x8 | x8 |1 %73
 x8 :|2 x8 |] %75
V:4
 x8 | x8 | x8 | x8 | x8 | x8 | x8 | x8 |: x8 | x8 | x8 | x8 | x8 | x8 | x8 | %15
!8vb(! x2!8vb)!!8vb(! x2!8vb)! x4 | x8 | x8 | x8 | x8 | x8 | x8 | x8 |1 x8 :|2 x8 |: x8 | x8 | x8 | %28
 x8 | x8 | x8 | x2 [A,C]2 x2 [^G,=B,]2 | x8 | x8 | x8 | x8 | x8 | x8 | x8 | x8 |1 x8 :|2 x8 || x8 | %43
 x8 | x8 | x8 | x8 | x8 | x8 |!8vb(! x2!8vb)!!8vb(! x2!8vb)! x4 | x8 | x8 | x8 | x8 | x8 | x8 | %56
 x8 | x8 |:[K:Bb] x8 | x8 | x8 | x8 | x8 | x8 | x8 | x8 | x8 | x8 | x8 | D,,8 | x8 | x8 | x8 |1 %73
 x8 :|2 x8 |] %75

